X:238
T:Killarney Boys of Pleasure
R:reel
H:Played in Edor or Ador
D:Fintan Vallely:
Z:id:hn-reel-348
M:C|
K:Edor
E2FD E2FA|(3Bcd AF DEFA|~B3d e2ed|(3Bcd AF DEFD|
E2FD E2FA|(3Bcd AF DEFA|~B3d efed|1 (3Bcd AF FEED:|2 (3Bcd AF FEE2||
|:Be~e2 Befd|(3Bcd AF DEFA|dffe fgfe|dBAF DEFA|
Be~e2 Befd|(3Bcd AF DEFA|dffe fgfe|1 dBAF FE~E2:|2 dBAF FEED||
